X: 28391
T: Muireann's
R: jig
M: 6/8
K: Bminor
BAF E2F|FDE FDE|FAA ABB|Bdd edB|
BAF E2F|FDE FDE|FAB def|1 fed edB:|2 fed e3||

